barni/images/inst.svg

<svg width="15" height="14" viewBox="0 0 15 14" fill="none" xmlns="http://www.w3.org/2000/svg">
<path d="M7.62925 3.63745C5.73342 3.63745 4.1626 5.18119 4.1626 7.1041C4.1626 9.02701 5.70634 10.5708 7.62925 10.5708C9.55216 10.5708 11.0959 8.99992 11.0959 7.1041C11.0959 5.20828 9.52507 3.63745 7.62925 3.63745ZM7.62925 9.32492C6.4105 9.32492 5.40843 8.32284 5.40843 7.1041C5.40843 5.88536 6.4105 4.88328 7.62925 4.88328C8.84799 4.88328 9.85007 5.88536 9.85007 7.1041C9.85007 8.32284 8.84799 9.32492 7.62925 9.32492Z" fill="white"/>
<path d="M11.2312 4.34158C11.665 4.34158 12.0166 3.98994 12.0166 3.55616C12.0166 3.12239 11.665 2.77075 11.2312 2.77075C10.7974 2.77075 10.4458 3.12239 10.4458 3.55616C10.4458 3.98994 10.7974 4.34158 11.2312 4.34158Z" fill="white"/>
<path d="M13.2625 1.52496C12.5584 0.793715 11.5563 0.414551 10.4188 0.414551L4.83966 0.414551C2.48342 0.414551 0.912598 1.98538 0.912598 4.34161L0.912598 9.89367C0.912598 11.0582 1.29176 12.0603 2.05009 12.7916C2.78134 13.4957 3.75633 13.8478 4.86675 13.8478L10.3917 13.8478C11.5563 13.8478 12.5313 13.4687 13.2355 12.7916C13.9667 12.0874 14.3459 11.0853 14.3459 9.92075L14.3459 4.34161C14.3459 3.20412 13.9667 2.22912 13.2625 1.52496ZM13.1542 9.92075C13.1542 10.7603 12.8563 11.4374 12.3688 11.8978C11.8813 12.3582 11.2042 12.602 10.3917 12.602L4.86675 12.602C4.05425 12.602 3.37717 12.3582 2.88967 11.8978C2.40217 11.4103 2.15843 10.7332 2.15843 9.89367L2.15842 4.34161C2.15842 3.52912 2.40217 2.85204 2.88967 2.36454C3.35009 1.90413 4.05425 1.66038 4.86675 1.66038L10.4459 1.66038C11.2584 1.66038 11.9355 1.90413 12.423 2.39162C12.8834 2.87912 13.1542 3.5562 13.1542 4.34161L13.1542 9.92075Z" fill="white"/>
</svg>

<svg width="15" height="14" fill="none" xmlns="http://www.w3.org/2000/svg"><path d="M7.63 3.637a3.473 3.473 0 0 0-3.467 3.467 3.456 3.456 0 0 0 3.466 3.467 3.473 3.473 0 0 0 3.467-3.467c0-1.896-1.57-3.467-3.467-3.467Zm0 5.688a2.23 2.23 0 0 1-2.222-2.22A2.23 2.23 0 0 1 7.63 4.882 2.23 2.23 0 0 1 9.85 7.104a2.23 2.23 0 0 1-2.22 2.22ZM11.231 4.342a.785.785 0 1 0 0-1.571.785.785 0 0 0 0 1.57Z" fill="#fff"/><path d="M13.262 1.525C12.558.794 11.556.415 10.42.415h-5.58C2.484.415.914 1.985.914 4.342v5.552c0 1.164.379 2.166 1.137 2.898.731.704 1.706 1.056 2.817 1.056h5.525c1.164 0 2.14-.38 2.844-1.056.73-.705 1.11-1.707 1.11-2.871V4.34c0-1.137-.38-2.112-1.084-2.816Zm-.108 8.396c0 .84-.298 1.516-.785 1.977-.488.46-1.165.704-1.977.704H4.867c-.813 0-1.49-.244-1.977-.704-.488-.488-.732-1.165-.732-2.004V4.342c0-.813.244-1.49.732-1.977.46-.46 1.164-.705 1.977-.705h5.579c.812 0 1.49.244 1.977.732.46.487.731 1.164.731 1.95V9.92Z" fill="#fff"/></svg>
